dist/partners/hoodies.svg

<svg width="146" height="32" viewBox="0 0 146 32" fill="none" xmlns="http://www.w3.org/2000/svg">
<g clip-path="url(#clip0_1_223)">
<path d="M22.5519 0L0.608887 21.83L2.44289 23.654L24.3849 1.824L22.5519 0ZM19.2089 10.68L17.3449 12.454L22.0449 17.209L17.3449 21.885L19.2089 23.739L25.7719 17.209L23.9079 15.356L19.2089 10.68ZM34.4199 8.533H37.2999V14.267H42.4869V8.533H45.3689V23.671H42.4869V17.019H37.2999V23.556H34.4199V8.533ZM50.7879 15.873C50.7879 10.713 53.0929 8.19 56.4359 8.19C59.7789 8.19 62.0839 10.598 62.0839 15.873C62.0839 21.607 59.7789 24.015 56.4359 24.015C53.0929 23.901 50.7879 21.607 50.7879 15.873ZM59.0869 15.873C59.0869 12.318 58.2799 11.057 56.4359 11.057C54.5919 11.057 53.7849 12.318 53.7849 15.873C53.7849 20.002 54.5919 21.148 56.4349 21.148C58.2799 21.148 59.0869 20.002 59.0869 15.873ZM67.5019 15.873C67.5019 10.713 69.8069 8.19 73.1499 8.19C76.4929 8.19 78.7979 10.598 78.7979 15.873C78.7979 21.607 76.4929 24.015 73.1499 24.015C69.8069 23.901 67.5019 21.607 67.5019 15.873ZM75.9159 15.873C75.9159 12.318 75.1099 11.057 73.2659 11.057C71.4209 11.057 70.6139 12.318 70.6139 15.873C70.6139 20.002 71.4209 21.148 73.2649 21.148C75.1089 21.148 75.9159 20.002 75.9159 15.873ZM84.7919 8.534H90.3249C93.6679 8.534 95.8579 10.598 95.8579 15.874C95.8579 21.607 93.5519 23.671 90.2099 23.671H84.7919V8.534ZM90.2099 20.804C92.0539 20.804 92.8599 20.002 92.8599 15.759C92.8599 12.204 92.1699 11.286 90.3249 11.286H87.7889V20.804H90.2099ZM101.852 20.804H105.31V11.286H101.852V8.534H111.535V11.286H108.192V20.804H111.535V23.557H101.852V20.804ZM119.027 8.534H128.594V11.286H121.909V14.268H128.018V17.02H121.909V20.804H128.594V23.557H119.027V8.534ZM137.124 17.823C137.24 19.199 137.701 21.149 140.467 21.149C141.85 21.149 143.118 20.575 143.118 19.199C143.118 18.052 142.311 17.364 140.352 16.906C137.585 16.218 135.28 15.186 135.28 12.433C135.28 10.254 137.009 8.305 140.352 8.305C142.888 8.305 145.078 9.681 145.769 12.433L143.003 13.007C142.772 12.204 141.966 11.057 140.352 11.057C138.969 11.057 138.277 11.745 138.277 12.433C138.277 13.351 139.545 13.809 141.159 14.268C143.349 14.956 146 15.758 146 19.314C146 22.066 143.81 24.13 140.467 24.13C135.856 24.13 134.704 20.92 134.473 18.511L137.124 17.823Z" fill="black"/>
</g>
<defs>
<clipPath id="clip0_1_223">
<rect width="146" height="25" fill="white"/>
</clipPath>
</defs>
</svg>

<svg class="Filters_logo__x8qSg" viewBox="0 0 146 25" xmlns="http://www.w3.org/2000/svg"><path d="M22.552 0L.609 21.83l1.834 1.824 21.942-21.83L22.552 0zM19.209 10.68l-1.864 1.774 4.7 4.755-4.7 4.676 1.864 1.854 6.563-6.53-1.864-1.853-4.7-4.676zM34.42 8.533H37.3v5.734h5.187V8.533h2.882v15.138h-2.882v-6.652h-5.187v6.537H34.42V8.533zM50.788 15.873c0-5.16 2.305-7.683 5.648-7.683 3.343 0 5.648 2.408 5.648 7.683 0 5.734-2.305 8.142-5.648 8.142-3.343-.114-5.648-2.408-5.648-8.142zm8.299 0c0-3.555-.807-4.816-2.651-4.816-1.844 0-2.651 1.261-2.651 4.816 0 4.129.807 5.275 2.65 5.275 1.845 0 2.652-1.146 2.652-5.275zM67.502 15.873c0-5.16 2.305-7.683 5.648-7.683 3.343 0 5.648 2.408 5.648 7.683 0 5.734-2.305 8.142-5.648 8.142-3.343-.114-5.648-2.408-5.648-8.142zm8.414 0c0-3.555-.806-4.816-2.65-4.816-1.845 0-2.652 1.261-2.652 4.816 0 4.129.807 5.275 2.651 5.275 1.844 0 2.651-1.146 2.651-5.275zM84.792 8.534h5.533c3.343 0 5.533 2.064 5.533 7.34 0 5.733-2.306 7.797-5.648 7.797h-5.418V8.534zm5.418 12.27c1.844 0 2.65-.802 2.65-5.045 0-3.555-.69-4.473-2.535-4.473h-2.536v9.518h2.42zM101.852 20.804h3.458v-9.518h-3.458V8.534h9.683v2.752h-3.343v9.518h3.343v2.753h-9.683v-2.753zM119.027 8.534h9.567v2.752h-6.685v2.982h6.109v2.752h-6.109v3.784h6.685v2.753h-9.567V8.534zM137.124 17.823c.116 1.376.577 3.326 3.343 3.326 1.383 0 2.651-.574 2.651-1.95 0-1.147-.807-1.835-2.766-2.293-2.767-.688-5.072-1.72-5.072-4.473 0-2.179 1.729-4.128 5.072-4.128 2.536 0 4.726 1.376 5.417 4.128l-2.766.574c-.231-.803-1.037-1.95-2.651-1.95-1.383 0-2.075.688-2.075 1.376 0 .918 1.268 1.376 2.882 1.835 2.19.688 4.841 1.49 4.841 5.046 0 2.752-2.19 4.816-5.533 4.816-4.611 0-5.763-3.21-5.994-5.619l2.651-.688z" fill="#000"></path></svg>
